X: 253
T: Polonäs, sexdregasamlingen del 1 nr 130 / del 3 nr 7 
B: Sexdregasamlingen del 3 nr 7
B: Sexdregasamlingen del 1 nr 130
B: http://www.smus.se/earkiv/fmk/browselarge.php?lang=sw&katalogid=Ma+12bb&bildnr=00004
B: Jämför även SMUS: [[http://www.smus.se/earkiv/fmk/browselarge.php?lang=sw&katalogid=Hs+11&bildnr=00055|katalog Hs11 bild 55]] (högersidan), [[http://www.smus.se/earkiv/fmk/browselarge.php?lang=sw&katalogid=Ma+9&bildnr=00076|katalog Ma9 bild 76]], [[http://www.smus.se/earkiv/fmk/browselarge.php?lang=sw&katalogid=Ma+11&bildnr=00029|katalog Ma11 bild 29]] (nr 3), [[http://www.smus.se/earkiv/fmk/browselarge.php?lang=sw&katalogid=M+170&bildnr=00011|katalog M170 bild 11 (no 62)]], [[http://www.smus.se/earkiv/fmk/browselarge.php?lang=sw&katalogid=M+42&bildnr=00030|katalog M42 bild 30]] efter [[Personer/Carl-Johan Johansson]] och [[Personer/P August Johansson]] i [[Platser/Småland]], samt [[http://www.smus.se/earkiv/fmk/browselarge.php?lang=sw&katalogid=MMD+34&bildnr=00011|MMD 34 bild 11]] ur [[Notböcker/Gustaf Wesliens notbok]], [[http://www.smus.se/earkiv/fmk/browselarge.php?lang=sw&katalogid=Vr+2&bildnr=00076|katalog Vr2 bild 76]]. Även [[http://www.smus.se/earkiv/fmk/browselarge.php?lang=sw&katalogid=S%F6+9&bildnr=00066|katalog Sö 9 bild 66]] uppvisar likheter.
O: Sexdrega, Västergötland
R: Slängpolska
Z: 2008-05-31 av Nils L
N: De två uppteckningarna skiljer sig litet åt i takt tre i andrareprisen. Låten verkar vara en variant av [[Musik/363|+]]. Se även [[Musik/2204|+]]
M: 3/4
Q:105
L: 1/16
K: Bb
B,2BA B2B,2 C2B2 | A2cA B2D2 E2g2 | f2gf e2d2 c2A2 | BABd cBAG FEDC |
B,2BA B2B,2 C2B2 | A2cA B2D2 E2g2 | f2gf e2d2 c2B2 | ABcA B4 B,4 ::
F2f=e f2c2 d2f2 | =e2ge f2A2 B2g2 | f2ga b2ag a2f2 | =efge f4 F4 |
f2g_a g2f2 _e2d2 | c=Bcd edcB c4 | c2de d2c2 B2A2 | BABd cBAG FEDC |
B,2BA B2F2 G2B2 | A2cA B2D2 E2g2 | f2gf e2d2 c2B2 | ABcA B4 B,4 :|
(:musicend:)

(:music:)
